assets/Old woman/Medium/Flat/old_woman_flat_medium.svg

<svg width="32" height="32" viewBox="0 0 32 32" fill="none" xmlns="http://www.w3.org/2000/svg">
<path d="M21 7C21 9.76142 18.7614 12 16 12C13.2386 12 11 9.76142 11 7C11 4.23858 13.2386 2 16 2C18.7614 2 21 4.23858 21 7Z" fill="#636363"/>
<path d="M16 5C23.6294 5 25.9748 8.56287 26.6909 13.0137C27.305 16.8306 23.866 20 20 20H11.5C7.63399 20 4.2017 16.8192 4.93635 13.0236C5.79873 8.56816 8.36491 5 16 5Z" fill="#9B9B9B"/>
<path d="M28 17.8999C28 19.5568 26.6569 20.8999 25 20.8999C23.3431 20.8999 22 19.5568 22 17.8999C22 16.243 23.3431 14.8999 25 14.8999C26.6569 14.8999 28 16.243 28 17.8999Z" fill="#BB806E"/>
<path d="M10.3 17.9999C10.3 19.6568 8.95684 20.9999 7.29999 20.9999C5.64313 20.9999 4.29999 19.6568 4.29999 17.9999C4.29999 16.343 5.64313 14.9999 7.29999 14.9999C8.95684 14.9999 10.3 16.343 10.3 17.9999Z" fill="#BB806E"/>
<path d="M6.51528 15.5459H6.53824L6.51912 15.0513L6.5 14.4807C6.53824 12.7116 7.57068 12.0268 8.01042 11.7985C8.0391 11.789 8.07256 11.7747 8.10602 11.7604C8.13947 11.7462 8.17293 11.7319 8.20161 11.7224C9.19581 11.2658 9.99882 10.4669 10.4194 9.42066L10.5724 9.05923C10.7253 8.6978 11.2033 8.64073 11.4328 8.96411C12.7711 10.9234 15.0081 12.0838 17.3788 12.0838H23.3823C23.718 12.0838 25.3999 12.2467 25.5 14.5676L25.2786 20.0182C25.0487 25.2432 20.9684 28.7517 15.9878 28.7517C11.0071 28.7517 6.92683 25.2432 6.69695 20.0182L6.51528 15.5459Z" fill="#C68D7B"/>
<path d="M15.2872 17.5266L14.2963 20.6961C14.0941 21.348 14.5794 22 15.2669 22H16.7331C17.4206 22 17.9059 21.338 17.7037 20.6961L16.7128 17.5266C16.5005 16.8245 15.5096 16.8245 15.2872 17.5266Z" fill="#AB6A55"/>
<path d="M16 23.3954C15.0538 23.3954 14.1644 23.1727 13.417 22.7831C13.1615 22.6532 12.8871 22.9408 13.048 23.1727C13.6724 24.1191 14.7605 24.75 16 24.75C17.2395 24.75 18.3276 24.1191 18.952 23.1727C19.1129 22.9315 18.8385 22.6532 18.583 22.7831C17.8356 23.1727 16.9556 23.3954 16 23.3954Z" fill="#990838"/>
<path d="M11 15.3999C12 15.3999 13.025 16.1999 13.525 16.9999C12.9262 17.1841 12.3698 17.326 11.8266 17.4644C11.1904 17.6266 10.5723 17.7841 9.92499 17.9999L8.92497 17.2999C8.52497 16.9999 8.42498 16.4999 9.02497 16.0999C9.62497 15.5999 10.3 15.3999 11 15.3999Z" fill="black"/>
<path d="M21.2 15.3999C20.2 15.3999 19.175 16.1999 18.675 16.9999C19.2738 17.1841 19.8301 17.326 20.3734 17.4644C21.0095 17.6266 21.6277 17.7841 22.275 17.9999L23.275 17.2999C23.675 16.9999 23.775 16.4999 23.175 16.0999C22.575 15.5999 21.9 15.3999 21.2 15.3999Z" fill="black"/>
<path d="M9.01481 17.3672C9.30113 16.2402 10.3279 15.3999 11.5423 15.3999C12.8061 15.3999 13.8625 16.2995 14.0994 17.4957C14.1488 17.7626 13.9415 17.9999 13.6749 17.9999H9.51834C9.18266 17.9999 8.93583 17.6934 9.01481 17.3672Z" fill="white"/>
<path d="M22.9852 17.3672C22.6989 16.2402 21.6721 15.3999 20.4577 15.3999C19.1841 15.3999 18.1375 16.2995 17.9006 17.4957C17.8512 17.7626 18.0585 17.9999 18.3251 17.9999H22.4817C22.8173 17.9999 23.0642 17.6934 22.9852 17.3672Z" fill="white"/>
<path d="M10.2588 17.557C10.2588 16.6312 11.0091 15.8926 11.9273 15.8926C12.8455 15.8926 13.586 16.6312 13.586 17.557C13.586 17.7145 13.5663 17.8623 13.5268 18.0002H10.318C10.2785 17.8524 10.2588 17.7145 10.2588 17.557Z" fill="#7D4533"/>
<path d="M21.7412 17.557C21.7412 16.6312 20.9908 15.8926 20.0726 15.8926C19.1545 15.8926 18.4041 16.6312 18.414 17.557C18.414 17.7145 18.4337 17.8623 18.4732 18.0002H21.682C21.7214 17.8524 21.7412 17.7145 21.7412 17.557Z" fill="#7D4533"/>
<path d="M11.9274 16.6113C12.4506 16.6113 12.8752 17.0348 12.8752 17.5568C12.8752 17.7144 12.8357 17.8621 12.7666 18H11.0882C11.019 17.8621 10.9796 17.7144 10.9796 17.5568C10.9796 17.0348 11.4041 16.6113 11.9274 16.6113Z" fill="black"/>
<path d="M20.0627 16.6113C19.5395 16.6113 19.1149 17.0348 19.1149 17.5568C19.1149 17.7144 19.1544 17.8621 19.2235 18H20.902C20.9711 17.8621 21.0106 17.7144 21.0106 17.5568C21.0106 17.0348 20.586 16.6113 20.0627 16.6113Z" fill="black"/>
<path d="M11.6509 16.9201C11.6509 17.0858 11.5183 17.2201 11.3547 17.2201C11.1911 17.2201 11.0585 17.0858 11.0585 16.9201C11.0585 16.7544 11.1911 16.6201 11.3547 16.6201C11.5183 16.6201 11.6509 16.7544 11.6509 16.9201Z" fill="white"/>
<path d="M19.8456 16.9201C19.8456 17.0858 19.7129 17.2201 19.5494 17.2201C19.3858 17.2201 19.2532 17.0858 19.2532 16.9201C19.2532 16.7544 19.3858 16.6201 19.5494 16.6201C19.7129 16.6201 19.8456 16.7544 19.8456 16.9201Z" fill="white"/>
<path d="M9.66547 14.4241L9.65729 14.4289C9.42053 14.5707 9.11332 14.4941 8.97129 14.2574C8.82922 14.0206 8.906 13.7134 9.14279 13.5714L9.14415 13.5705L9.14608 13.5694L9.15158 13.5662L9.16913 13.556C9.1837 13.5477 9.20396 13.5363 9.22961 13.5224C9.28087 13.4946 9.35381 13.4567 9.44585 13.4128C9.62956 13.3253 9.89141 13.2131 10.2105 13.1113C10.8442 12.909 11.7303 12.7389 12.6869 12.9077C12.9589 12.9557 13.1404 13.2151 13.0924 13.487C13.0444 13.7589 12.7851 13.9405 12.5131 13.8925C11.7697 13.7613 11.0559 13.8912 10.5146 14.0639C10.2462 14.1496 10.0268 14.2437 9.87611 14.3155C9.80096 14.3513 9.74343 14.3814 9.70602 14.4016C9.68733 14.4118 9.67371 14.4194 9.66547 14.4241Z" fill="#9B9B9B"/>
<path d="M22.857 13.5712L22.8559 13.5705L22.854 13.5694L22.8485 13.5662L22.8309 13.556C22.8164 13.5477 22.7961 13.5363 22.7705 13.5224C22.7192 13.4946 22.6463 13.4567 22.5542 13.4128C22.3705 13.3253 22.1087 13.2131 21.7896 13.1113C21.1559 12.909 20.2697 12.7389 19.3131 12.9077C19.0412 12.9557 18.8597 13.2151 18.9076 13.487C18.9556 13.7589 19.215 13.9405 19.4869 13.8925C20.2303 13.7613 20.9442 13.8912 21.4855 14.0639C21.7539 14.1496 21.9733 14.2437 22.124 14.3155C22.1991 14.3513 22.2567 14.3814 22.2941 14.4016C22.3128 14.4118 22.3264 14.4194 22.3346 14.4241L22.3429 14.4289L22.3438 14.4294C22.5804 14.5707 22.8869 14.4938 23.0288 14.2574C23.1709 14.0206 23.0938 13.7133 22.857 13.5712Z" fill="#9B9B9B"/>
<path d="M18.7187 18.6275C18.9244 18.4433 19.2405 18.4607 19.4247 18.6664C19.6202 18.8847 19.8018 19.036 20.0376 19.1402C20.2778 19.2463 20.6119 19.32 21.1322 19.32C21.4084 19.32 21.6322 19.5439 21.6322 19.82C21.6322 20.0961 21.4084 20.32 21.1322 20.32C20.5203 20.32 20.0383 20.2337 19.6335 20.0548C19.2243 19.8741 18.9321 19.6153 18.6798 19.3336C18.4955 19.1278 18.513 18.8117 18.7187 18.6275Z" fill="#AB6A55"/>
<path d="M12.7183 18.6548C12.9086 18.4553 13.2247 18.4476 13.4246 18.6377C13.6247 18.828 13.6323 19.1448 13.442 19.3449L13.441 19.3459L13.4394 19.3476L13.4354 19.3517L13.4238 19.3635C13.4144 19.3728 13.4019 19.385 13.3863 19.3997C13.3551 19.429 13.3113 19.4683 13.2555 19.5142C13.1441 19.6059 12.983 19.7252 12.7762 19.8438C12.363 20.0807 11.7577 20.32 11 20.32C10.7239 20.32 10.5 20.0961 10.5 19.82C10.5 19.5439 10.7239 19.32 11 19.32C11.5423 19.32 11.977 19.1493 12.2788 18.9763C12.4295 18.8898 12.5447 18.8041 12.6201 18.742C12.6577 18.7111 12.6851 18.6864 12.7016 18.6708C12.7099 18.6631 12.7155 18.6575 12.7183 18.6548Z" fill="#AB6A55"/>
</svg>

<svg xmlns="http://www.w3.org/2000/svg" width="32" height="32" fill="none"><path fill="#636363" d="M21 7a5 5 0 1 1-10 0 5 5 0 0 1 10 0Z"/><path fill="#9B9B9B" d="M16 5c7.63 0 9.975 3.563 10.69 8.014C27.306 16.83 23.867 20 20 20h-8.5c-3.866 0-7.298-3.18-6.564-6.976C5.8 8.568 8.365 5 16 5Z"/><path fill="#BB806E" d="M28 17.9a3 3 0 1 1-6 0 3 3 0 0 1 6 0ZM10.3 18a3 3 0 1 1-6 0 3 3 0 0 1 6 0Z"/><path fill="#C68D7B" d="M6.515 15.546h.023l-.019-.495-.019-.57c.038-1.77 1.07-2.454 1.51-2.682.03-.01.063-.024.096-.039.033-.014.067-.028.096-.038a4.296 4.296 0 0 0 2.217-2.301l.153-.362a.492.492 0 0 1 .86-.095 7.201 7.201 0 0 0 5.947 3.12h6.003c.336 0 2.018.163 2.118 2.484l-.221 5.45c-.23 5.225-4.31 8.734-9.291 8.734-4.98 0-9.061-3.509-9.291-8.734l-.182-4.472Z"/><path fill="#AB6A55" d="m15.287 17.527-.99 3.17a1.005 1.005 0 0 0 .97 1.303h1.466c.688 0 1.173-.662.97-1.304l-.99-3.17c-.213-.701-1.203-.701-1.426 0Z"/><path fill="#990838" d="M16 23.395a5.603 5.603 0 0 1-2.583-.612c-.255-.13-.53.158-.369.39A3.53 3.53 0 0 0 16 24.75a3.53 3.53 0 0 0 2.952-1.577c.16-.241-.114-.52-.369-.39a5.574 5.574 0 0 1-2.583.612Z"/><path fill="#000" d="M11 15.4c1 0 2.025.8 2.525 1.6-.599.184-1.155.326-1.698.464-.637.163-1.255.32-1.902.536l-1-.7c-.4-.3-.5-.8.1-1.2.6-.5 1.275-.7 1.975-.7ZM21.2 15.4c-1 0-2.025.8-2.525 1.6.599.184 1.155.326 1.698.464.636.163 1.255.32 1.902.536l1-.7c.4-.3.5-.8-.1-1.2-.6-.5-1.275-.7-1.975-.7Z"/><path fill="#fff" d="M9.015 17.367a2.607 2.607 0 0 1 5.085.128.428.428 0 0 1-.425.505H9.518a.512.512 0 0 1-.503-.633ZM22.985 17.367a2.617 2.617 0 0 0-2.527-1.967 2.6 2.6 0 0 0-2.557 2.096.428.428 0 0 0 .424.504h4.157a.512.512 0 0 0 .503-.633Z"/><path fill="#7D4533" d="M10.259 17.557a1.664 1.664 0 1 1 3.268.443h-3.209a1.656 1.656 0 0 1-.06-.443ZM21.741 17.557c0-.926-.75-1.664-1.668-1.664a1.65 1.65 0 0 0-1.659 1.664c0 .158.02.305.06.443h3.208c.04-.148.06-.285.06-.443Z"/><path fill="#000" d="M11.927 16.611a.947.947 0 0 1 .84 1.389h-1.679a.947.947 0 0 1 .84-1.389ZM20.063 16.611a.947.947 0 0 0-.84 1.389h1.679a.947.947 0 0 0-.84-1.389Z"/><path fill="#fff" d="M11.65 16.92c0 .166-.132.3-.295.3a.298.298 0 0 1-.296-.3c0-.166.132-.3.296-.3.163 0 .296.134.296.3ZM19.846 16.92c0 .166-.133.3-.297.3a.298.298 0 0 1-.296-.3c0-.166.133-.3.296-.3.164 0 .297.134.297.3Z"/><path fill="#9B9B9B" d="m9.665 14.424-.008.005a.5.5 0 0 1-.514-.858h.001l.002-.002.006-.003.017-.01a3.226 3.226 0 0 1 .277-.143c.184-.088.445-.2.764-.302.634-.202 1.52-.372 2.477-.203a.5.5 0 1 1-.174.985c-.743-.132-1.457-.002-1.998.17a5.119 5.119 0 0 0-.85.361ZM22.857 13.571h-.001l-.002-.002-.005-.003-.018-.01a4.717 4.717 0 0 0-.277-.143 6.11 6.11 0 0 0-.764-.302c-.634-.202-1.52-.372-2.477-.203a.5.5 0 0 0 .174.985c.743-.132 1.457-.002 1.998.17a5.12 5.12 0 0 1 .85.361l.008.005a.5.5 0 0 0 .514-.858Z"/><path fill="#AB6A55" d="M18.719 18.628a.5.5 0 0 1 .706.038c.195.219.377.37.613.474.24.106.574.18 1.094.18a.5.5 0 1 1 0 1c-.612 0-1.094-.086-1.498-.265-.41-.18-.702-.44-.954-.721a.5.5 0 0 1 .039-.706ZM12.718 18.655a.5.5 0 0 1 .724.69h-.001l-.002.003-.004.004-.011.011a2.121 2.121 0 0 1-.168.151A3.562 3.562 0 0 1 11 20.32a.5.5 0 0 1-.001-1 2.562 2.562 0 0 0 1.702-.65l.016-.015Z"/></svg>
